static/img/kroki/1ef59a581a45ddbd2b4c4210b390881e.svg

<?xml version="1.0" encoding="us-ascii" standalone="no"?><svg xmlns="http://www.w3.org/2000/svg" xmlns:xlink="http://www.w3.org/1999/xlink" contentStyleType="text/css" height="252px" preserveAspectRatio="none" style="width:623px;height:252px;" version="1.1" viewBox="0 0 623 252" width="623px" zoomAndPan="magnify"><defs/><g><!--class aws_ec2_security_group--><g id="elem_aws_ec2_security_group"><rect codeLine="22" fill="#3D176E" height="39.7891" id="aws_ec2_security_group" rx="2.5" ry="2.5" style="stroke:#000D19;stroke-width:0.5;" width="245" x="7" y="7"/><ellipse cx="22" cy="26.8945" fill="#ADD1B2" rx="11" ry="11" style="stroke:#181818;stroke-width:1.0;"/><path d="M24.9688,32.5352 Q24.3906,32.832 23.75,32.9727 Q23.1094,33.1289 22.4063,33.1289 Q19.9063,33.1289 18.5781,31.4883 Q17.2656,29.832 17.2656,26.707 Q17.2656,23.582 18.5781,21.9258 Q19.9063,20.2695 22.4063,20.2695 Q23.1094,20.2695 23.75,20.4258 Q24.4063,20.582 24.9688,20.8789 L24.9688,23.5977 Q24.3438,23.0195 23.75,22.7539 Q23.1563,22.4727 22.5313,22.4727 Q21.1875,22.4727 20.5,23.5508 Q19.8125,24.6133 19.8125,26.707 Q19.8125,28.8008 20.5,29.8789 Q21.1875,30.9414 22.5313,30.9414 Q23.1563,30.9414 23.75,30.6758 Q24.3438,30.3945 24.9688,29.8164 L24.9688,32.5352 Z " fill="#000000"/><text fill="#D9B8FF" font-family="Helvetica" font-size="17" lengthAdjust="spacing" textLength="203" x="41" y="32.7798">aws_ec2_security_group</text></g><!--class aws_elasticache_cache_cluster--><g id="elem_aws_elasticache_cache_cluster"><rect codeLine="24" fill="#3D176E" height="39.7891" id="aws_elasticache_cache_cluster" rx="2.5" ry="2.5" style="stroke:#000D19;stroke-width:0.5;" width="297" x="142" y="106.79"/><ellipse cx="157" cy="126.6845" fill="#ADD1B2" rx="11" ry="11" style="stroke:#181818;stroke-width:1.0;"/><path d="M159.9688,132.3252 Q159.3906,132.622 158.75,132.7627 Q158.1094,132.9189 157.4063,132.9189 Q154.9063,132.9189 153.5781,131.2783 Q152.2656,129.622 152.2656,126.497 Q152.2656,123.372 153.5781,121.7158 Q154.9063,120.0595 157.4063,120.0595 Q158.1094,120.0595 158.75,120.2158 Q159.4063,120.372 159.9688,120.6689 L159.9688,123.3877 Q159.3438,122.8095 158.75,122.5439 Q158.1563,122.2627 157.5313,122.2627 Q156.1875,122.2627 155.5,123.3408 Q154.8125,124.4033 154.8125,126.497 Q154.8125,128.5908 155.5,129.6689 Q156.1875,130.7314 157.5313,130.7314 Q158.1563,130.7314 158.75,130.4658 Q159.3438,130.1845 159.9688,129.6064 L159.9688,132.3252 Z " fill="#000000"/><text fill="#D9B8FF" font-family="Helvetica" font-size="17" lengthAdjust="spacing" textLength="255" x="176" y="132.5698">aws_elasticache_cache_cluster</text></g><!--class aws_elasticache_replication_group--><g id="elem_aws_elasticache_replication_group"><rect codeLine="26" fill="#3D176E" height="39.7891" id="aws_elasticache_replication_group" rx="2.5" ry="2.5" style="stroke:#000D19;stroke-width:0.5;" width="330" x="286.5" y="7"/><ellipse cx="301.5" cy="26.8945" fill="#ADD1B2" rx="11" ry="11" style="stroke:#181818;stroke-width:1.0;"/><path d="M304.4688,32.5352 Q303.8906,32.832 303.25,32.9727 Q302.6094,33.1289 301.9063,33.1289 Q299.4063,33.1289 298.0781,31.4883 Q296.7656,29.832 296.7656,26.707 Q296.7656,23.582 298.0781,21.9258 Q299.4063,20.2695 301.9063,20.2695 Q302.6094,20.2695 303.25,20.4258 Q303.9063,20.582 304.4688,20.8789 L304.4688,23.5977 Q303.8438,23.0195 303.25,22.7539 Q302.6563,22.4727 302.0313,22.4727 Q300.6875,22.4727 300,23.5508 Q299.3125,24.6133 299.3125,26.707 Q299.3125,28.8008 300,29.8789 Q300.6875,30.9414 302.0313,30.9414 Q302.6563,30.9414 303.25,30.6758 Q303.8438,30.3945 304.4688,29.8164 L304.4688,32.5352 Z " fill="#000000"/><text fill="#D9B8FF" font-family="Helvetica" font-size="17" lengthAdjust="spacing" textLength="288" x="320.5" y="32.7798">aws_elasticache_replication_group</text></g><!--class aws_sns_topic--><g id="elem_aws_sns_topic"><rect codeLine="28" fill="#3D176E" height="39.7891" id="aws_sns_topic" rx="2.5" ry="2.5" style="stroke:#000D19;stroke-width:0.5;" width="160" x="210.5" y="206.58"/><ellipse cx="225.5" cy="226.4745" fill="#ADD1B2" rx="11" ry="11" style="stroke:#181818;stroke-width:1.0;"/><path d="M228.4688,232.1152 Q227.8906,232.412 227.25,232.5527 Q226.6094,232.7089 225.9063,232.7089 Q223.4063,232.7089 222.0781,231.0683 Q220.7656,229.412 220.7656,226.287 Q220.7656,223.162 222.0781,221.5058 Q223.4063,219.8495 225.9063,219.8495 Q226.6094,219.8495 227.25,220.0058 Q227.9063,220.162 228.4688,220.4589 L228.4688,223.1777 Q227.8438,222.5995 227.25,222.3339 Q226.6563,222.0527 226.0313,222.0527 Q224.6875,222.0527 224,223.1308 Q223.3125,224.1933 223.3125,226.287 Q223.3125,228.3808 224,229.4589 Q224.6875,230.5214 226.0313,230.5214 Q226.6563,230.5214 227.25,230.2558 Q227.8438,229.9745 228.4688,229.3964 L228.4688,232.1152 Z " fill="#000000"/><text fill="#D9B8FF" font-family="Helvetica" font-size="17" lengthAdjust="spacing" textLength="118" x="244.5" y="232.3598">aws_sns_topic</text></g><!--link aws_ec2_security_group to aws_elasticache_cache_cluster--><g id="link_aws_ec2_security_group_aws_elasticache_cache_cluster"><path codeLine="30" d="M161.31,47.22 C187.88,63.36 225.79,86.38 253.67,103.32 " fill="none" id="aws_ec2_security_group-to-aws_elasticache_cache_cluster" style="stroke:#1A83AF;stroke-width:2.0;"/><polygon fill="#1A83AF" points="257.76,106.41,252.1322,98.3274,253.4827,103.8207,247.9894,105.1711,257.76,106.41" style="stroke:#1A83AF;stroke-width:2.0;"/></g><!--link aws_elasticache_cache_cluster to aws_sns_topic--><g id="link_aws_elasticache_cache_cluster_aws_sns_topic"><path codeLine="31" d="M290.5,147.01 C290.5,162.28 290.5,183.71 290.5,200.32 " fill="none" id="aws_elasticache_cache_cluster-to-aws_sns_topic" style="stroke:#1A83AF;stroke-width:2.0;"/><polygon fill="#1A83AF" points="290.5,205.2,294.5,196.2,290.5,200.2,286.5,196.2,290.5,205.2" style="stroke:#1A83AF;stroke-width:2.0;"/></g><!--link aws_elasticache_replication_group to aws_elasticache_cache_cluster--><g id="link_aws_elasticache_replication_group_aws_elasticache_cache_cluster"><path codeLine="32" d="M419.69,47.22 C393.12,63.36 355.21,86.38 327.33,103.32 " fill="none" id="aws_elasticache_replication_group-to-aws_elasticache_cache_cluster" style="stroke:#1A83AF;stroke-width:2.0;"/><polygon fill="#1A83AF" points="323.24,106.41,333.0106,105.1711,327.5173,103.8207,328.8678,98.3274,323.24,106.41" style="stroke:#1A83AF;stroke-width:2.0;"/></g><!--SRC=[ZP31Qi9048RlUOe5puAfjEgba0hINgJKtae9w-wiMKnsmyoaOalVlKQjR1EDlIpBpCVytqncDGWeIjwA0eeb84MqjgwKA0kH8FhDrESUHSyOQOQZPdFc7Ly5vh80yGZv1x1LiacyPbQj7H29cw3r8DLwXRvo-Z2UKJhQjS1nG4rpIPGmerrM386CdYp7nZJ9vj3UKCUZEsXX7ZNW4HaC1ZgUD96hKPrxduY5_GGHXqURUuQMPYjYJtLQraGWsLhqjt_HyLbgRTrAt0QrbuCJEi0_zKKcjT_Kj94vXJ74WE1vMyAqjHLCnjgCpi9Fbs1LNqx83QMWRb82LQ7bRLgZfVYAlaDWzwjtKXcanpUlweWE3g7CTr-stfsTIOvIzgLL-_e5ZVvRBqx6msJsth_lDecwFLk3Jl7HTV7_M_m0]--></g></svg>

<svg xmlns="http://www.w3.org/2000/svg" width="623" height="252" preserveAspectRatio="none" style="width:623px;height:252px"><rect width="245" height="39.789" x="7" y="7" fill="#3D176E" rx="2.5" ry="2.5" style="stroke:#000d19;stroke-width:.5"/><circle cx="22" cy="26.895" r="11" fill="#ADD1B2" style="stroke:#181818;stroke-width:1"/><path d="M24.969 32.535q-.578.297-1.219.438-.64.156-1.344.156-2.5 0-3.828-1.64-1.312-1.657-1.312-4.782t1.312-4.781q1.328-1.656 3.828-1.656.703 0 1.344.156.656.156 1.219.453v2.719q-.625-.578-1.219-.844-.594-.281-1.219-.281-1.343 0-2.031 1.078-.688 1.062-.688 3.156 0 2.094.688 3.172.688 1.062 2.031 1.062.625 0 1.219-.265.594-.281 1.219-.86v2.72Z"/><text x="41" y="32.78" fill="#D9B8FF" font-family="Helvetica" font-size="17" textLength="203">aws_ec2_security_group</text><rect width="297" height="39.789" x="142" y="106.79" fill="#3D176E" rx="2.5" ry="2.5" style="stroke:#000d19;stroke-width:.5"/><circle cx="157" cy="126.684" r="11" fill="#ADD1B2" style="stroke:#181818;stroke-width:1"/><path d="M159.969 132.325q-.578.297-1.219.438-.64.156-1.344.156-2.5 0-3.828-1.64-1.312-1.657-1.312-4.782t1.312-4.781q1.328-1.656 3.828-1.656.703 0 1.344.156.656.156 1.219.453v2.719q-.625-.579-1.219-.844-.594-.281-1.219-.281-1.344 0-2.031 1.078-.688 1.062-.688 3.156 0 2.094.688 3.172.688 1.062 2.031 1.062.625 0 1.219-.265.594-.281 1.219-.86v2.72Z"/><text x="176" y="132.57" fill="#D9B8FF" font-family="Helvetica" font-size="17" textLength="255">aws_elasticache_cache_cluster</text><rect width="330" height="39.789" x="286.5" y="7" fill="#3D176E" rx="2.5" ry="2.5" style="stroke:#000d19;stroke-width:.5"/><circle cx="301.5" cy="26.895" r="11" fill="#ADD1B2" style="stroke:#181818;stroke-width:1"/><path d="M304.469 32.535q-.578.297-1.219.438-.64.156-1.344.156-2.5 0-3.828-1.64-1.312-1.657-1.312-4.782t1.312-4.781q1.328-1.656 3.828-1.656.703 0 1.344.156.656.156 1.219.453v2.719q-.625-.578-1.219-.844-.594-.281-1.219-.281-1.344 0-2.031 1.078-.688 1.062-.688 3.156 0 2.094.688 3.172.688 1.062 2.031 1.062.625 0 1.219-.265.594-.281 1.219-.86v2.72Z"/><text x="320.5" y="32.78" fill="#D9B8FF" font-family="Helvetica" font-size="17" textLength="288">aws_elasticache_replication_group</text><rect width="160" height="39.789" x="210.5" y="206.58" fill="#3D176E" rx="2.5" ry="2.5" style="stroke:#000d19;stroke-width:.5"/><circle cx="225.5" cy="226.475" r="11" fill="#ADD1B2" style="stroke:#181818;stroke-width:1"/><path d="M228.469 232.115q-.578.297-1.219.438-.64.156-1.344.156-2.5 0-3.828-1.64-1.312-1.657-1.312-4.782t1.312-4.781q1.328-1.656 3.828-1.656.703 0 1.344.156.656.156 1.219.453v2.719q-.625-.578-1.219-.844-.594-.281-1.219-.281-1.344 0-2.031 1.078-.688 1.062-.688 3.156 0 2.094.688 3.172.688 1.062 2.031 1.062.625 0 1.219-.265.594-.281 1.219-.86v2.72Z"/><text x="244.5" y="232.36" fill="#D9B8FF" font-family="Helvetica" font-size="17" textLength="118">aws_sns_topic</text><path fill="none" d="M161.31 47.22c26.57 16.14 64.48 39.16 92.36 56.1" style="stroke:#1a83af;stroke-width:2"/><path fill="#1A83AF" d="m257.76 106.41-5.628-8.083 1.35 5.494-5.493 1.35 9.771 1.239z" style="stroke:#1a83af;stroke-width:2"/><path fill="none" d="M290.5 147.01v53.31" style="stroke:#1a83af;stroke-width:2"/><path fill="#1A83AF" d="m290.5 205.2 4-9-4 4-4-4 4 9z" style="stroke:#1a83af;stroke-width:2"/><path fill="none" d="M419.69 47.22c-26.57 16.14-64.48 39.16-92.36 56.1" style="stroke:#1a83af;stroke-width:2"/><path fill="#1A83AF" d="m323.24 106.41 9.77-1.239-5.493-1.35 1.35-5.494-5.627 8.083z" style="stroke:#1a83af;stroke-width:2"/></svg>
